fs/print_20_regular.svg

<svg viewBox="0 0 20 20" fill="none" xmlns="http://www.w3.org/2000/svg" height="1em" width="1em">
  <path d="M5 4.5C5 3.67157 5.67157 3 6.5 3H13.5C14.3284 3 15 3.67157 15 4.5V5H15.5C16.8807 5 18 6.11929 18 7.5V12.5C18 13.3284 17.3284 14 16.5 14H15V15.5C15 16.3284 14.3284 17 13.5 17H6.5C5.67157 17 5 16.3284 5 15.5V14H3.5C2.67157 14 2 13.3284 2 12.5V7.5C2 6.11929 3.11929 5 4.5 5H5V4.5ZM6 5H14V4.5C14 4.22386 13.7761 4 13.5 4H6.5C6.22386 4 6 4.22386 6 4.5V5ZM5 13V11.5C5 10.6716 5.67157 10 6.5 10H13.5C14.3284 10 15 10.6716 15 11.5V13H16.5C16.7761 13 17 12.7761 17 12.5V7.5C17 6.67157 16.3284 6 15.5 6H4.5C3.67157 6 3 6.67157 3 7.5V12.5C3 12.7761 3.22386 13 3.5 13H5ZM6.5 11C6.22386 11 6 11.2239 6 11.5V15.5C6 15.7761 6.22386 16 6.5 16H13.5C13.7761 16 14 15.7761 14 15.5V11.5C14 11.2239 13.7761 11 13.5 11H6.5Z" fill="#212121"/>
</svg>

<svg viewBox="0 0 20 20" fill="none" xmlns="http://www.w3.org/2000/svg" height="1em" width="1em">
  <path d="M5 4.5A1.5 1.5 0 0 1 6.5 3h7A1.5 1.5 0 0 1 15 4.5V5h.5A2.5 2.5 0 0 1 18 7.5v5a1.5 1.5 0 0 1-1.5 1.5H15v1.5a1.5 1.5 0 0 1-1.5 1.5h-7A1.5 1.5 0 0 1 5 15.5V14H3.5A1.5 1.5 0 0 1 2 12.5v-5A2.5 2.5 0 0 1 4.5 5H5v-.5ZM6 5h8v-.5a.5.5 0 0 0-.5-.5h-7a.5.5 0 0 0-.5.5V5Zm-1 8v-1.5A1.5 1.5 0 0 1 6.5 10h7a1.5 1.5 0 0 1 1.5 1.5V13h1.5a.5.5 0 0 0 .5-.5v-5A1.5 1.5 0 0 0 15.5 6h-11A1.5 1.5 0 0 0 3 7.5v5a.5.5 0 0 0 .5.5H5Zm1.5-2a.5.5 0 0 0-.5.5v4a.5.5 0 0 0 .5.5h7a.5.5 0 0 0 .5-.5v-4a.5.5 0 0 0-.5-.5h-7Z" fill="#212121"/>
</svg>
